app/dist/common/images/united-states-antimony.svg

<svg height="18" width="18" xmlns="http://www.w3.org/2000/svg"><path d="m0 0h18v18h-18z" fill="#ffc708"/><path d="m5.41 7.71h7.16v2.58h-7.16z" fill="#b69010"/><path d="m5.29 7.31-1.6-1.41h10.6l-1.67 1.4.01.01h-7.33zm-1.89-1.13 1.59 1.4v2.83l-1.59 1.54zm.43 5.92h10.47l-1.64-1.41h-7.36zm10.77-.27v-5.67l-1.62 1.36v2.9l1.62 1.4zm-11.6-5.83c0-.28.22-.5.5-.5h11c.28 0 .5.22.5.5v6a.5.5 0 0 1 -.5.5h-11a.5.5 0 0 1 -.5-.5zm2.49 1.81h7v2.38h-7v-2.39z" fill-rule="evenodd"/></svg>

<!-- by TradingView --><svg xmlns="http://www.w3.org/2000/svg" width="18" height="18"><path fill="#FFC708" d="M0 0h18v18H0z"/><path fill="#B69010" d="M5.41 7.71h7.16v2.58H5.41z"/><path fill-rule="evenodd" d="M5.29 7.31L3.69 5.9h10.6l-1.67 1.4.01.01H5.3zM3.4 6.18l1.59 1.4v2.83L3.4 11.95V6.18zm.43 5.92H14.3l-1.64-1.41H5.3L3.83 12.1zm10.77-.27V6.16l-1.62 1.36v2.9l1.62 1.4zM3 6c0-.28.22-.5.5-.5h11c.28 0 .5.22.5.5v6a.5.5 0 01-.5.5h-11A.5.5 0 013 12V6zm2.49 1.81h7v2.38h-7V7.8z"/></svg>
